build/logo.svg

<?xml version="1.0" encoding="UTF-8" standalone="no"?>
<!-- Created with Inkscape (http://www.inkscape.org/) -->

<svg
   width="200mm"
   height="200mm"
   viewBox="0 0 200 200"
   version="1.1"
   id="svg1"
   xml:space="preserve"
   inkscape:version="1.3 (0e150ed6c4, 2023-07-21)"
   sodipodi:docname="logo.svg"
   inkscape:export-filename="TGS_Final.png"
   inkscape:export-xdpi="63.5"
   inkscape:export-ydpi="63.5"
   xmlns:inkscape="http://www.inkscape.org/namespaces/inkscape"
   xmlns:sodipodi="http://sodipodi.sourceforge.net/DTD/sodipodi-0.dtd"
   xmlns:xlink="http://www.w3.org/1999/xlink"
   xmlns="http://www.w3.org/2000/svg"
   xmlns:svg="http://www.w3.org/2000/svg"><sodipodi:namedview
     id="namedview1"
     pagecolor="#ffffff"
     bordercolor="#000000"
     borderopacity="0.25"
     inkscape:showpageshadow="2"
     inkscape:pageopacity="0.0"
     inkscape:pagecheckerboard="0"
     inkscape:deskcolor="#d1d1d1"
     inkscape:document-units="mm"
     inkscape:zoom="1"
     inkscape:cx="456.5"
     inkscape:cy="404.5"
     inkscape:window-width="2560"
     inkscape:window-height="1377"
     inkscape:window-x="-8"
     inkscape:window-y="-8"
     inkscape:window-maximized="1"
     inkscape:current-layer="layer1"
     showgrid="true"><inkscape:grid
       id="grid5"
       units="mm"
       originx="0"
       originy="0"
       spacingx="0.99999999"
       spacingy="0.99999999"
       empcolor="#0099e5"
       empopacity="0.30196078"
       color="#0099e5"
       opacity="0.14901961"
       empspacing="5"
       dotted="false"
       gridanglex="30"
       gridanglez="30"
       visible="true" /></sodipodi:namedview><defs
     id="defs1"><inkscape:path-effect
       effect="fillet_chamfer"
       id="path-effect13"
       is_visible="true"
       lpeversion="1"
       nodesatellites_param="F,0,0,1,0,0,0,1 @ F,0,0,1,0,0,0,1 @ F,0,0,1,0,0,0,1 @ F,0,0,1,0,0,0,1 @ F,0,0,1,0,0,0,1 @ F,0,0,1,0,0,0,1 @ F,0,0,1,0,0,0,1 @ F,0,0,1,0,0,0,1 @ F,0,0,1,0,0,0,1 @ F,0,0,1,0,0,0,1 @ F,0,0,1,0,0,0,1 @ F,0,0,1,0,0,0,1 @ F,0,0,1,0,0,0,1 @ F,0,0,1,0,0,0,1 @ F,0,0,1,0,0,0,1 @ F,0,0,1,0,0,0,1 @ F,0,0,1,0,0,0,1 @ F,0,0,1,0,0,0,1 @ F,0,0,1,0,0,0,1 @ F,0,0,1,0,0,0,1 @ F,0,0,1,0,0,0,1 @ F,0,0,1,0,0,0,1 @ F,0,0,1,0,0,0,1 @ F,0,0,1,0,0,0,1"
       radius="0"
       unit="px"
       method="auto"
       mode="F"
       chamfer_steps="1"
       flexible="false"
       use_knot_distance="true"
       apply_no_radius="true"
       apply_with_radius="true"
       only_selected="false"
       hide_knots="false" /><linearGradient
       id="swatch4"
       inkscape:swatch="solid"><stop
         style="stop-color:#b1b147;stop-opacity:1;"
         offset="0"
         id="stop4" /></linearGradient><linearGradient
       inkscape:collect="always"
       xlink:href="#swatch4"
       id="linearGradient8"
       gradientUnits="userSpaceOnUse"
       gradientTransform="translate(-59.911656,13.287167)"
       x1="128.69228"
       y1="74.587837"
       x2="158.73108"
       y2="74.587837" /><linearGradient
       inkscape:collect="always"
       xlink:href="#swatch4"
       id="linearGradient24"
       gradientUnits="userSpaceOnUse"
       gradientTransform="translate(-7.3015936,10.238606)"
       x1="128.69228"
       y1="74.587837"
       x2="158.73108"
       y2="74.587837" /></defs><g
     inkscape:label="Layer 1"
     inkscape:groupmode="layer"
     id="layer1"
     transform="translate(0.79874203)"><g
       id="g9"
       style="stroke:#ffffff;stroke-width:1;stroke-dasharray:none;stroke-opacity:1"
       transform="matrix(1.0493555,0,0,1.0493251,0.06738616,0.02743015)"><path
         id="path2"
         style="fill:#082338;fill-opacity:1;stroke:#ffffff;stroke-width:1;stroke-dasharray:none;stroke-opacity:1"
         inkscape:transform-center-x="-0.048020681"
         inkscape:transform-center-y="1.3338"
         d="M 116.93981,-1.7346282e-6 93.918474,6.2941877 71.135885,0.07234527 53.655815,16.420701 30.612261,21.574392 22.677344,44.231924 4.6515713,59.580858 8.0803026,83.356667 -0.79874203,105.38478 13.208155,124.83217 l 2.302185,23.66057 21.376473,10.66447 12.955798,19.87269 23.848157,-0.56276 20.641634,11.53263 20.857638,-11.66027 23.59805,0.55035 13.08809,-20.08663 21.14961,-10.55801 2.32027,-23.91172 13.85497,-19.2474 -8.97878,-22.259106 3.38687,-23.527763 -18.22111,-15.506547 -7.8574,-22.417753 -23.28902,-5.202266 z M 110.97945,24.575242 l 12.75322,11.921237 4.14032,0.924491 c 3.29445,-1.379678 6.91141,-2.00847 10.47275,-2.020549 4.44046,-0.05413 9.15303,0.566265 12.93977,3.140377 3.86509,2.562706 5.73611,7.264332 5.99447,11.757939 -0.17452,4.824559 -0.70704,9.624947 -1.34979,14.419275 l 4.19199,3.567224 -2.497,17.343127 6.61872,16.406747 -10.2123,14.18777 -1.71049,17.6258 -6.39858,3.19412 c -0.14631,0.6408 -0.29859,1.28063 -0.48472,1.91719 -1.10223,3.66237 -2.91465,7.05098 -5.65289,9.70742 -3.04385,2.95734 -7.01985,4.64557 -11.16314,5.41001 l -1.53737,2.35954 -17.39481,-0.40566 -15.374251,8.59483 -15.215092,-8.50026 -17.578772,0.41393 -7.807792,-11.9755 c -0.409015,2.95612 -0.790465,5.91712 -1.219564,8.86923 H 30.464983 c 1.504873,-10.70075 3.009421,-21.40163 4.513936,-32.10244 L 34.517965,116.5903 24.193531,102.25526 30.737834,86.01852 28.21034,68.492458 39.978097,58.472398 h -6.823873 l 3.023588,-21.908223 c 9.425986,-4.1e-4 18.851875,-5.93e-4 28.277861,-0.001 l 12.761495,-11.934672 16.79329,4.585767 z" /></g><g
       id="text2-1"
       style="font-style:italic;font-weight:800;font-size:133px;font-family:Steelfish;-inkscape-font-specification:'Steelfish Ultra-Bold Italic';letter-spacing:0px;fill:#034274;stroke:#ffffff;stroke-width:1;stroke-dasharray:none;stroke-opacity:1"
       aria-label="TGS"
       inkscape:label="text2-1"
       transform="matrix(1.0493555,0,0,1.0493251,0.06738616,0.02743015)" /><g
       id="text2"
       style="font-style:italic;font-weight:800;font-size:133px;font-family:Steelfish;-inkscape-font-specification:'Steelfish Ultra-Bold Italic';letter-spacing:0px;fill:#034274;stroke:#ffffff;stroke-width:1;stroke-dasharray:none;stroke-opacity:1"
       aria-label="TGS"
       transform="matrix(1.0493555,0,0,1.0493251,0.06738616,0.02743015)"><path
         d="m 49.24725,149.72949 13.3,-94.961998 h 10.507 l 1.995,-14.497 h -35.644 l -1.995,14.497 h 10.64 l -13.3,94.961998 z m 49.342915,0.665 7.447995,-53.332998 H 87.418165 l -1.862,13.831998 h 4.655 l -3.059,21.413 c -0.399,2.793 -1.862,4.123 -4.655,4.123 -2.261,0 -3.192,-1.33 -2.793,-4.123 l 10.507,-74.612998 c 0.399,-2.793 1.729,-4.123 3.99,-4.123 2.793,0 3.99,1.33 3.591,4.123 l -2.793,19.418 h 13.033995 l 2.793,-19.285 c 0.399,-1.596 0.266,-3.059 0.266,-4.522 0,-9.177 -4.256,-14.231 -14.895995,-14.231 -12.236,0 -18.886,6.517 -20.482,18.753 l -10.507,74.479998 c -0.266,1.596 -0.399,3.192 -0.399,4.655 0,10.241 6.251,13.965 14.63,13.965 4.921,0 10.374,-1.197 13.566,-4.921 l 4.123,4.389 z"
         id="path11"
         style="stroke:#ffffff;stroke-width:1;stroke-dasharray:none;stroke-opacity:1" /><path
         style="fill:#097dd6;stroke:#ffffff;stroke-width:1;stroke-dasharray:none;stroke-opacity:1"
         d="m 128.64827,132.83849 c -0.266,2.394 -1.596,3.591 -3.99,3.591 -2.261,0 -3.325,-1.197 -3.059,-3.591 l 3.325,-23.275 h -13.832 l -3.325,23.275 c -0.399,1.463 -0.266,2.66 -0.266,4.123 0,9.044 4.788,13.965 15.428,13.965 12.369,0 18.487,-6.384 20.083,-18.088 l 2.261,-15.694 c 0.266,-1.995 0.399,-3.857 0.399,-5.586 0,-6.384 -1.995,-11.570998 -6.916,-19.683998 -6.783,-10.64 -8.645,-13.034 -7.98,-18.62 l 2.261,-16.226 c 0.399,-2.261 1.729,-3.458 3.99,-3.458 2.394,0 3.325,1.197 2.926,3.458 l -2.793,20.083 h 13.3 l 2.793,-20.083 c 0.266,-1.729 0.399,-3.325 0.399,-4.921 0,-9.044 -4.389,-13.034 -15.029,-13.034 -11.837,0 -18.487,5.985 -20.216,17.955 l -2.261,16.359 c -0.266,1.596 -0.399,3.059 -0.399,4.522 0,7.049 2.527,12.502 7.182,19.95 7.315,11.171998 8.645,13.698998 7.98,19.417998 z"
         id="path10" /></g></g></svg>

<?xml version="1.0" encoding="UTF-8" standalone="no"?>
<!-- Created with Inkscape (http://www.inkscape.org/) -->

<svg
   width="200mm"
   height="200mm"
   viewBox="0 0 200 200"
   version="1.1"
   id="svg1"
   xml:space="preserve"
   inkscape:version="1.3 (0e150ed6c4, 2023-07-21)"
   sodipodi:docname="TGS_Final.svg"
   inkscape:export-filename="TGS_Final.png"
   inkscape:export-xdpi="63.5"
   inkscape:export-ydpi="63.5"
   xmlns:inkscape="http://www.inkscape.org/namespaces/inkscape"
   xmlns:sodipodi="http://sodipodi.sourceforge.net/DTD/sodipodi-0.dtd"
   xmlns:xlink="http://www.w3.org/1999/xlink"
   xmlns="http://www.w3.org/2000/svg"
   xmlns:svg="http://www.w3.org/2000/svg"><sodipodi:namedview
     id="namedview1"
     pagecolor="#ffffff"
     bordercolor="#000000"
     borderopacity="0.25"
     inkscape:showpageshadow="2"
     inkscape:pageopacity="0.0"
     inkscape:pagecheckerboard="0"
     inkscape:deskcolor="#d1d1d1"
     inkscape:document-units="mm"
     inkscape:zoom="1"
     inkscape:cx="456.5"
     inkscape:cy="404.5"
     inkscape:window-width="2560"
     inkscape:window-height="1377"
     inkscape:window-x="-8"
     inkscape:window-y="-8"
     inkscape:window-maximized="1"
     inkscape:current-layer="layer1"
     showgrid="true"><inkscape:grid
       id="grid5"
       units="mm"
       originx="0"
       originy="0"
       spacingx="0.99999999"
       spacingy="0.99999999"
       empcolor="#0099e5"
       empopacity="0.30196078"
       color="#0099e5"
       opacity="0.14901961"
       empspacing="5"
       dotted="false"
       gridanglex="30"
       gridanglez="30"
       visible="true" /></sodipodi:namedview><defs
     id="defs1"><inkscape:path-effect
       effect="fillet_chamfer"
       id="path-effect13"
       is_visible="true"
       lpeversion="1"
       nodesatellites_param="F,0,0,1,0,0,0,1 @ F,0,0,1,0,0,0,1 @ F,0,0,1,0,0,0,1 @ F,0,0,1,0,0,0,1 @ F,0,0,1,0,0,0,1 @ F,0,0,1,0,0,0,1 @ F,0,0,1,0,0,0,1 @ F,0,0,1,0,0,0,1 @ F,0,0,1,0,0,0,1 @ F,0,0,1,0,0,0,1 @ F,0,0,1,0,0,0,1 @ F,0,0,1,0,0,0,1 @ F,0,0,1,0,0,0,1 @ F,0,0,1,0,0,0,1 @ F,0,0,1,0,0,0,1 @ F,0,0,1,0,0,0,1 @ F,0,0,1,0,0,0,1 @ F,0,0,1,0,0,0,1 @ F,0,0,1,0,0,0,1 @ F,0,0,1,0,0,0,1 @ F,0,0,1,0,0,0,1 @ F,0,0,1,0,0,0,1 @ F,0,0,1,0,0,0,1 @ F,0,0,1,0,0,0,1"
       radius="0"
       unit="px"
       method="auto"
       mode="F"
       chamfer_steps="1"
       flexible="false"
       use_knot_distance="true"
       apply_no_radius="true"
       apply_with_radius="true"
       only_selected="false"
       hide_knots="false" /><linearGradient
       id="swatch4"
       inkscape:swatch="solid"><stop
         style="stop-color:#b1b147;stop-opacity:1;"
         offset="0"
         id="stop4" /></linearGradient><linearGradient
       inkscape:collect="always"
       xlink:href="#swatch4"
       id="linearGradient8"
       gradientUnits="userSpaceOnUse"
       gradientTransform="translate(-59.911656,13.287167)"
       x1="128.69228"
       y1="74.587837"
       x2="158.73108"
       y2="74.587837" /><linearGradient
       inkscape:collect="always"
       xlink:href="#swatch4"
       id="linearGradient24"
       gradientUnits="userSpaceOnUse"
       gradientTransform="translate(-7.3015936,10.238606)"
       x1="128.69228"
       y1="74.587837"
       x2="158.73108"
       y2="74.587837" /></defs><g
     inkscape:label="Layer 1"
     inkscape:groupmode="layer"
     id="layer1"
     transform="translate(0.79874203)"><g
       id="g9"
       style="stroke:#ffffff;stroke-opacity:1;stroke-width:1;stroke-dasharray:none"><path
         id="path2"
         style="fill:#082338;fill-opacity:1;stroke-width:1;stroke:#ffffff;stroke-opacity:1;stroke-dasharray:none"
         inkscape:transform-center-x="-0.048020681"
         inkscape:transform-center-y="1.3338"
         d="M 116.93981 -1.7346282e-06 L 93.918474 6.2941877 L 71.135885 0.072345271 L 53.655815 16.420701 L 30.612261 21.574392 L 22.677344 44.231924 L 4.6515713 59.580858 L 8.0803026 83.356667 L -0.79874203 105.38478 L 13.208155 124.83217 L 15.51034 148.49274 L 36.886813 159.15721 L 49.842611 179.0299 L 73.690768 178.46714 L 94.332402 189.99977 L 115.19004 178.3395 L 138.78809 178.88985 L 151.87618 158.80322 L 173.02579 148.24521 L 175.34606 124.33349 L 189.20103 105.08609 L 180.22225 82.826984 L 183.60912 59.299221 L 165.38801 43.792674 L 157.53061 21.374921 L 134.24159 16.172655 L 116.93981 -1.7346282e-06 z M 110.97945 24.575242 L 123.73267 36.496479 L 127.87299 37.42097 C 131.16744 36.041292 134.7844 35.4125 138.34574 35.400421 C 142.7862 35.346287 147.49877 35.966686 151.28551 38.540798 C 155.1506 41.103504 157.02162 45.80513 157.27998 50.298737 C 157.10546 55.123296 156.57294 59.923684 155.93019 64.718012 L 160.12218 68.285236 L 157.62518 85.628363 L 164.2439 102.03511 L 154.0316 116.22288 L 152.32111 133.84868 L 145.92253 137.0428 C 145.77622 137.6836 145.62394 138.32343 145.43781 138.95999 C 144.33558 142.62236 142.52316 146.01097 139.78492 148.66741 C 136.74107 151.62475 132.76507 153.31298 128.62178 154.07742 L 127.08441 156.43696 L 109.6896 156.0313 L 94.315349 164.62613 L 79.100257 156.12587 L 61.521485 156.5398 L 53.713693 144.5643 C 53.304678 147.52042 52.923228 150.48142 52.494129 153.43353 L 30.464983 153.43353 C 31.969856 142.73278 33.474404 132.0319 34.978919 121.33109 L 34.517965 116.5903 L 24.193531 102.25526 L 30.737834 86.01852 L 28.21034 68.492458 L 39.978097 58.472398 L 33.154224 58.472398 L 36.177812 36.564175 C 45.603798 36.563765 55.029687 36.563582 64.455673 36.563141 L 77.217168 24.628469 L 94.010458 29.214236 L 110.97945 24.575242 z " /></g><g
       id="text2-1"
       style="font-style:italic;font-weight:800;font-size:133px;font-family:Steelfish;-inkscape-font-specification:'Steelfish Ultra-Bold Italic';letter-spacing:0px;fill:#034274;stroke:#ffffff;stroke-width:1;stroke-opacity:1;stroke-dasharray:none"
       aria-label="TGS"
       inkscape:label="text2-1" /><g
       id="text2"
       style="font-style:italic;font-weight:800;font-size:133px;font-family:Steelfish;-inkscape-font-specification:'Steelfish Ultra-Bold Italic';letter-spacing:0px;fill:#034274;stroke:#ffffff;stroke-width:1;stroke-opacity:1;stroke-dasharray:none"
       aria-label="TGS"><path
         d="m 49.24725,149.72949 13.3,-94.961998 h 10.507 l 1.995,-14.497 h -35.644 l -1.995,14.497 h 10.64 l -13.3,94.961998 z m 49.342915,0.665 7.447995,-53.332998 H 87.418165 l -1.862,13.831998 h 4.655 l -3.059,21.413 c -0.399,2.793 -1.862,4.123 -4.655,4.123 -2.261,0 -3.192,-1.33 -2.793,-4.123 l 10.507,-74.612998 c 0.399,-2.793 1.729,-4.123 3.99,-4.123 2.793,0 3.99,1.33 3.591,4.123 l -2.793,19.418 h 13.033995 l 2.793,-19.285 c 0.399,-1.596 0.266,-3.059 0.266,-4.522 0,-9.177 -4.256,-14.231 -14.895995,-14.231 -12.236,0 -18.886,6.517 -20.482,18.753 l -10.507,74.479998 c -0.266,1.596 -0.399,3.192 -0.399,4.655 0,10.241 6.251,13.965 14.63,13.965 4.921,0 10.374,-1.197 13.566,-4.921 l 4.123,4.389 z"
         id="path11"
         style="stroke:#ffffff;stroke-opacity:1;stroke-width:1;stroke-dasharray:none" /><path
         style="fill:#097dd6;stroke:#ffffff;stroke-opacity:1;stroke-width:1;stroke-dasharray:none"
         d="m 128.64827,132.83849 c -0.266,2.394 -1.596,3.591 -3.99,3.591 -2.261,0 -3.325,-1.197 -3.059,-3.591 l 3.325,-23.275 h -13.832 l -3.325,23.275 c -0.399,1.463 -0.266,2.66 -0.266,4.123 0,9.044 4.788,13.965 15.428,13.965 12.369,0 18.487,-6.384 20.083,-18.088 l 2.261,-15.694 c 0.266,-1.995 0.399,-3.857 0.399,-5.586 0,-6.384 -1.995,-11.570998 -6.916,-19.683998 -6.783,-10.64 -8.645,-13.034 -7.98,-18.62 l 2.261,-16.226 c 0.399,-2.261 1.729,-3.458 3.99,-3.458 2.394,0 3.325,1.197 2.926,3.458 l -2.793,20.083 h 13.3 l 2.793,-20.083 c 0.266,-1.729 0.399,-3.325 0.399,-4.921 0,-9.044 -4.389,-13.034 -15.029,-13.034 -11.837,0 -18.487,5.985 -20.216,17.955 l -2.261,16.359 c -0.266,1.596 -0.399,3.059 -0.399,4.522 0,7.049 2.527,12.502 7.182,19.95 7.315,11.171998 8.645,13.698998 7.98,19.417998 z"
         id="path10" /></g></g></svg>
